X:33
T:Gatineau Reel
S:Bernie Waugh
R:Reel
M:4/4
L:1/8
K:F
|:AB|\
"F"cagf "Bb"egfd|"F"(3cdc AF CFAc|"C7"BAGA BcdB|"F"{e}dcAF CFAB|
"F"cagf "Bb"egfd|"F"(3cdc AF CFAc|"C7"BAGA Bcde|"F"fcag f2:|
|:(3ABc|\
"F"acgc "F7"fcBc|"Gm"fdec d2 ga|"Gmaj"bdad "G7"gfef|"C"{g}gfed "C7"c2 (3ABc|
"F"acgc "F7"fcBc|"Bb"dfbf dBAB|"Gm"bagf "C"edc=B|"C7"cbge "F"f2:|

